www/assets/icons/merge_type.svg

<svg width="24" height="24" viewBox="0 0 24 24" xmlns="http://www.w3.org/2000/svg" fill='currentColor'><path d="M17 20.4549L18.41 19.0449L15 15.6349L13.59 17.0449L17 20.4549ZM7.5 8.04492H11V13.6349L5.59 19.0449L7 20.4549L13 14.4549V8.04492H16.5L12 3.54492L7.5 8.04492Z"/></svg>

<svg xmlns="http://www.w3.org/2000/svg" width="24" height="24" viewBox="0 0 24 24" fill='currentColor'><path d="m17 20.455 1.41-1.41-3.41-3.41-1.41 1.41zM7.5 8.045H11v5.59l-5.41 5.41L7 20.455l6-6v-6.41h3.5l-4.5-4.5z"/></svg>
